X: 37512
T: Slip Into Spring
R: slip jig
M: 9/8
K: Dmajor
AB def|fg/f/e fed cdB|BB/c/d AGF EFD-|
Dd2 c2B2 A2|G3-GFG EFG|DAA DBB BA/G/F|
Fdd Fdd def|-fe2d2 B ABd|d3-dAB def|
fg/f/e fed cdB|BB/c/d AGF EFD|-Dd2 c2 B2 A2|
G2 G GFG EFG|DAA DBB BB/A/G|Fdd Fdd def/g/|
fe2 d2 B ABd|d3-dAB def|ada dgf ef/e/d|
ada dgf ef/e/d|c/d/cB AGF EFG|A2A2 Bc def|
ada dgf ef/e/d|ada dgf ef/e/d|c/d/cB AGF EFG|
AAA -AGF EFE|E z F2G2A2G|FDA,E6||

